img/audience-icon-2.svg

<svg width="70" height="70" viewBox="0 0 70 70" fill="none" xmlns="http://www.w3.org/2000/svg">
<path d="M53.75 30.8397C53.3146 12.8751 27.8375 11.0626 24.7687 28.6272L18.3396 30.9647C18.2479 19.4376 27.6437 10.0001 39.1667 10.0064C66.8479 11.0605 66.7146 50.8022 39.0396 51.6668L41.3771 45.2376C48.3708 44.1668 53.75 38.1272 53.75 30.8397ZM39.8125 30.1959C42.2771 32.6605 43.4271 35.9793 43.1146 39.3168C46.3125 37.8251 48.5437 34.6022 48.5437 30.8397C48.5833 20.8501 34.7062 17.9397 30.675 26.923C34.0396 26.4959 37.3979 27.7959 39.8125 30.1959ZM10.9208 54.6647L16.4312 49.1543L12.9604 45.6834C11.6229 44.3459 11.0708 42.448 11.4792 40.6022C11.8896 38.7564 13.1937 37.2689 14.9708 36.623L29.2167 31.4439C31.9125 30.4647 34.8396 31.1189 36.8667 33.1418C38.8917 35.1668 39.5417 38.098 38.5625 40.7897L33.3833 55.0355C32.7375 56.8126 31.25 58.1168 29.4042 58.5272C27.5854 58.9355 25.6583 58.3897 24.3229 57.0459L20.8521 53.5751L15.3417 59.0855C12.4396 61.9626 8.04582 57.5668 10.9229 54.6668L10.9208 54.6647ZM27.9083 51.7959L32.6854 38.6522C32.8833 38.1084 32.6208 37.7355 32.4437 37.5605C32.2708 37.3834 31.8979 37.1126 31.3521 37.3189L18.2083 42.0959L27.9083 51.7959Z" fill="#7D82B7"/>
</svg>

<svg width="70" height="70" fill="none" xmlns="http://www.w3.org/2000/svg"><path d="M53.75 30.84c-.435-17.965-25.913-19.777-28.981-2.213l-6.43 2.338C18.249 19.438 27.645 10 39.168 10.006c27.68 1.054 27.548 40.796-.127 41.66l2.337-6.428c6.994-1.071 12.373-7.11 12.373-14.398zm-13.938-.644a11.329 11.329 0 013.303 9.12c3.197-1.49 5.429-4.714 5.429-8.476.04-9.99-13.838-12.9-17.869-3.917 3.365-.427 6.723.873 9.137 3.273zm-28.89 24.469l5.51-5.51-3.47-3.472a5.476 5.476 0 01-1.482-5.08 5.478 5.478 0 013.492-3.98l14.246-5.18c2.696-.978 5.623-.324 7.65 1.699a7.224 7.224 0 011.696 7.648l-5.18 14.245a5.477 5.477 0 01-3.979 3.492 5.479 5.479 0 01-5.081-1.481l-3.47-3.47-5.511 5.51c-2.902 2.877-7.296-1.52-4.42-4.42l-.001-.001zm16.987-2.87l4.777-13.143a.991.991 0 00-.241-1.092c-.173-.177-.546-.447-1.092-.241l-13.144 4.777 9.7 9.7z" fill="#7D82B7"/></svg>
